X: 21053
M: 6/8
L: 1/8
K: Bb
V: 1 name="3"
d |\
dcB ABc | BAB G2d | dcB ABG | F3 z2d |\
dcB ABc | BAB G2d | dcB ABG | F3 FG"^D.C."A |]


